packages/dnb-eufemia/assets/icons/language_medium.svg

<svg width="25" height="24" viewBox="0 0 25 24" fill="none" xmlns="http://www.w3.org/2000/svg">
<path d="M1.00718 8.93752H5.81903C6.43221 8.93758 7.00398 9.384 7.15278 9.97885L7.84028 12.7288C7.89099 12.9316 7.89483 13.1432 7.8515 13.3476C7.71932 13.9713 7.14776 14.4374 6.50653 14.4375H5.51745L4.98807 17.0855L4.58317 19.3624M1.00718 8.93752C0.621432 10.646 0.669994 12.4361 1.15039 14.1241C1.73202 16.1678 2.94231 18.0141 4.58317 19.3624M1.00718 8.93752C1.69748 5.88006 3.77287 3.23869 6.5811 1.84483C8.03739 1.122 9.64164 0.747216 11.2674 0.750016C14.0545 0.745997 16.7293 1.88719 18.6767 3.81252M4.58317 19.3624C5.44572 20.0712 6.41834 20.64 7.46573 21.0446C10.5146 22.2224 14.0177 21.8928 16.7934 20.167L23.2674 23.25L20.1844 16.775C20.5709 16.154 20.8897 15.497 21.1374 14.8153M21.1374 14.8153C21.5233 13.753 21.7366 12.6308 21.7644 11.4914C21.8102 9.62074 21.3545 7.77194 20.4447 6.13683C19.9648 5.27442 19.3664 4.4943 18.6767 3.81252M21.1374 14.8153H17.37C16.7062 14.8155 16.1227 14.3214 16.0134 13.6667L15.2883 9.31252H13.8409C12.9609 9.31242 12.2968 8.44472 12.5071 7.60385L13.1946 4.85385C13.3434 4.259 13.9152 3.81258 14.5284 3.81252H18.6767" stroke="black" stroke-width="1.5" stroke-linecap="round" stroke-linejoin="round"/>
</svg>

<svg width="24" height="24" viewBox="0 0 24 24" fill="none" xmlns="http://www.w3.org/2000/svg"><path d="M1.007 8.938H5.82c.613 0 1.185.446 1.334 1.04l.687 2.75c.051.204.055.415.011.62a1.392 1.392 0 0 1-1.344 1.09h-.99l-.529 2.647-.405 2.277M1.007 8.938a10.52 10.52 0 0 0 .143 5.186 10.556 10.556 0 0 0 3.433 5.238M1.007 8.938a10.577 10.577 0 0 1 5.574-7.093A10.5 10.5 0 0 1 11.267.75c2.788-.004 5.462 1.137 7.41 3.063M4.583 19.363a10.5 10.5 0 0 0 2.883 1.682 10.58 10.58 0 0 0 9.327-.878l6.474 3.083-3.083-6.475c.387-.621.706-1.278.953-1.96m0 0a10.484 10.484 0 0 0-.692-8.678 10.339 10.339 0 0 0-1.768-2.324m2.46 11.002H17.37a1.388 1.388 0 0 1-1.357-1.148l-.725-4.354h-1.447c-.88 0-1.544-.868-1.334-1.71l.688-2.75a1.406 1.406 0 0 1 1.333-1.04h4.149" stroke="#000" stroke-width="1.5" stroke-linecap="round" stroke-linejoin="round"/></svg>
